X:1
T:Scarborough Fair
C:Traditional English
M:3/4
L:1/8
Q:1/4=100
K:Dm
D4D2|A4A2|A4G2|A4B2|A6|A4d2|d4C2|D4E2|F4E2|D6|D4D2|d4c2|A4A2|A4G2|F4G2|A6|A4d2|d4C2|D4E2|F4E2|D6|
w:Are you go- ing to Scar- bo- rough Fair Pars- ley sage rose- ma- ry and thyme Re- mem- ber me to one who lives there She once was a true love of mine
